public/avatar/shoe/77.svg

<svg xmlns:xlink="http://www.w3.org/1999/xlink" height="38.3" width="36.05" xmlns="http://www.w3.org/2000/svg"><use height="20.15" transform="translate(9.7 9.75)" width="22.45" xlink:href="#a"/><defs><use height="20.15" width="22.45" xlink:href="#b" id="a"/><g id="b"><path d="M20.3 5.15q-.45-.8-2-.85l-1.5.05.8-1.95q.1-.55-1.6-1.65-1-.65-4.35-.6-3.55 0-3.5 1.3 0 3.4-.5 4.7l-1.7 1q-1.3.95-3.15 3.35-.35.35-.25.9l-.85 1.15L.2 14.1q-.45.65.1 4.2l9.5 1q2.75-.35 5.05-1.55Q16.4 17 17.4 15.7l1.85-.2q.8-.25 2.05-1.9l.05-.4q.45-5.7-1.05-8.05Z" fill="none" stroke="#000" stroke-linecap="round" stroke-linejoin="round" transform="translate(.5 .35)"/><path d="M7.75 7.25q.7-4.05.65-6-.1-1.3 3.5-1.2 3.3 0 4.3.65 1.05.65-.75 6.4l-7.7.15" fill="#77787a" fill-rule="evenodd" transform="translate(.5 .35)"/><path d="m16.2 4 3.75.45q1.25.85 1.2 8.45 0 .7-.95 1.6l-1.2.85q-.3 0 .05-1.65l-3.3 3.05q-1.9 1.55-5.5 2.05l-9.6-.85q-.8-1.5 0-3.95 1.65-.85 2.75-3.4l9.55-.95q-.55 0 3.25-5.65" fill="#77787a" fill-rule="evenodd" transform="translate(.5 .35)"/><path d="M13.25.1q2.4.1 2.3.5l-.85 4.35q-.9 4.2-1.85 5.3l-4.65 4.9-.25.75-6-.55q-.15-.7.25-1 1.4-1 3.9-4 2.7-3.1 2.85-4L9.6.15Q10.85-.1 13.25.1" fill="#aaabad" fill-rule="evenodd" transform="translate(.5 .35)"/><path d="m3.8 10.4 2.85-2.7q3.5-1.05 9.45.05L12 11q-3.7-1.05-6.3-.9l-1.9.3" fill="#ffdc00" fill-rule="evenodd" transform="translate(.5 .35)"/><path d="m12.85 11.5-.6.15q-3.45-.95-6.2-.85L4 11.05q-.45.2-.8-.25-.25-.45.15-.85 2.8-2.8 3.2-2.9 3.6-1.1 9.65 0l.55.55q0 .55-.4.75l-3.5 3.15m-.45-1.3q.9-1.55 1.75-2.05l-6.65.2-1.6 1.1q2.85-.15 6.5.75" fill="#fd9b0b" fill-rule="evenodd" transform="translate(.5 .35)"/><path d="M19.6 6.75q-.05-.55.35-.8l.85-1.1 1.1 4.85-.1 3.35-.85.9q.25-2.95-.3-3.95L19.6 6.75M19.05 13 19 15.4l-2.15.55 2.2-2.95" fill-rule="evenodd" transform="translate(.5 .35)"/><path d="m13.7 9.3 1-1.35-4.55-.5q-.55 0 .4-.6 5.95.35 5.5.9l-1.6 1.7q-.85.65-1.2.5-.3-.05.45-.65" fill="#fff2ae" fill-rule="evenodd" transform="translate(.5 .35)"/><path d="m16.45 7.2-1.2-.25L16.6 1l1.15 1-.25 2.55h.1L16.45 7.2" fill="#272429" fill-rule="evenodd" transform="translate(.5 .35)"/><path d="M17.6 4.55q2.65.1 2.05.65-2.7 2.4-3 2.05l-.2-.05 1.15-2.65" fill-rule="evenodd" transform="translate(.5 .35)"/><path d="m13.05 2.8.3.15q1.25.6.25 1.7-.75 1-1.85.5l-.5-.3-1 .25Q9.2 4.85 9.4 3.85q.25-1.05 1.3-1.05-.15-.4.2-.9.7-1.15 1.8-.7 1.05.55.35 1.6" fill="#ffdc00" fill-rule="evenodd" transform="translate(.5 .35)"/></g></defs></svg>

<?xml version="1.0" encoding="UTF-8" standalone="no"?>
<svg xmlns:xlink="http://www.w3.org/1999/xlink" height="38.3px" width="36.05px" xmlns="http://www.w3.org/2000/svg">
  <g transform="matrix(1.0, 0.0, 0.0, 1.0, 23.8, 14.85)">
    <use height="20.15" transform="matrix(1.0, 0.0, 0.0, 1.0, -14.1, -5.1)" width="22.45" xlink:href="#sprite0"/>
  </g>
  <defs>
    <g id="sprite0" transform="matrix(1.0, 0.0, 0.0, 1.0, 0.5, 0.35)">
      <use height="20.15" transform="matrix(1.0, 0.0, 0.0, 1.0, -0.5, -0.35)" width="22.45" xlink:href="#shape0"/>
    </g>
    <g id="shape0" transform="matrix(1.0, 0.0, 0.0, 1.0, 0.5, 0.35)">
      <path d="M20.3 5.15 Q19.85 4.35 18.3 4.3 L16.8 4.35 17.6 2.4 Q17.7 1.85 16.0 0.75 15.0 0.1 11.65 0.15 8.1 0.15 8.15 1.45 8.15 4.85 7.65 6.15 L5.95 7.15 Q4.65 8.1 2.8 10.5 2.45 10.85 2.55 11.4 L1.7 12.55 0.2 14.1 Q-0.25 14.75 0.3 18.3 L9.8 19.3 Q12.55 18.95 14.85 17.75 16.4 17.0 17.4 15.7 L19.25 15.5 Q20.05 15.25 21.3 13.6 L21.35 13.2 Q21.8 7.5 20.3 5.15 Z" fill="none" stroke="#000000" stroke-linecap="round" stroke-linejoin="round" stroke-width="1.0"/>
      <path d="M7.75 7.25 Q8.45 3.2 8.4 1.25 8.3 -0.05 11.9 0.05 15.2 0.05 16.2 0.7 17.25 1.35 15.45 7.1 L7.75 7.25" fill="#77787a" fill-rule="evenodd" stroke="none"/>
      <path d="M16.2 4.0 L19.95 4.45 Q21.2 5.3 21.15 12.9 21.15 13.6 20.2 14.5 L19.0 15.35 Q18.7 15.35 19.05 13.7 L15.75 16.75 Q13.85 18.3 10.25 18.8 L0.65 17.95 Q-0.15 16.45 0.65 14.0 2.3 13.15 3.4 10.6 L12.95 9.65 Q12.4 9.65 16.2 4.0" fill="#77787a" fill-rule="evenodd" stroke="none"/>
      <path d="M13.25 0.1 Q15.65 0.2 15.55 0.6 L14.7 4.95 Q13.8 9.15 12.85 10.25 L8.2 15.15 7.95 15.9 1.95 15.35 Q1.8 14.65 2.2 14.35 3.6 13.35 6.1 10.35 8.8 7.25 8.95 6.35 L9.6 0.15 Q10.85 -0.1 13.25 0.1" fill="#aaabad" fill-rule="evenodd" stroke="none"/>
      <path d="M3.8 10.4 L6.65 7.7 Q10.15 6.65 16.1 7.75 L12.0 11.0 Q8.3 9.95 5.7 10.1 L3.8 10.4" fill="#ffdc00" fill-rule="evenodd" stroke="none"/>
      <path d="M12.85 11.5 L12.25 11.65 Q8.8 10.7 6.05 10.8 L4.0 11.05 Q3.55 11.25 3.2 10.8 2.95 10.35 3.35 9.95 6.15 7.15 6.55 7.05 10.15 5.95 16.2 7.05 L16.75 7.6 Q16.75 8.15 16.35 8.35 L12.85 11.5 M12.4 10.2 Q13.3 8.65 14.15 8.15 L7.5 8.35 5.9 9.45 Q8.75 9.3 12.4 10.2" fill="#fd9b0b" fill-rule="evenodd" stroke="none"/>
      <path d="M19.6 6.75 Q19.55 6.2 19.95 5.95 L20.8 4.85 21.9 9.7 21.8 13.05 20.95 13.95 Q21.2 11.0 20.65 10.0 L19.6 6.75" fill="#000000" fill-rule="evenodd" stroke="none"/>
      <path d="M19.05 13.0 L19.0 15.4 16.85 15.95 19.05 13.0" fill="#000000" fill-rule="evenodd" stroke="none"/>
      <path d="M13.7 9.3 L14.7 7.95 10.15 7.45 Q9.6 7.45 10.55 6.85 16.5 7.2 16.05 7.75 L14.45 9.45 Q13.6 10.1 13.25 9.95 12.95 9.9 13.7 9.3" fill="#fff2ae" fill-rule="evenodd" stroke="none"/>
      <path d="M16.45 7.2 L15.25 6.95 16.6 1.0 17.75 2.0 17.5 4.55 17.6 4.55 16.45 7.2" fill="#272429" fill-rule="evenodd" stroke="none"/>
      <path d="M17.6 4.55 Q20.25 4.65 19.65 5.2 16.95 7.6 16.65 7.25 L16.45 7.2 17.6 4.55" fill="#000000" fill-rule="evenodd" stroke="none"/>
      <path d="M13.05 2.8 L13.35 2.95 Q14.6 3.55 13.6 4.65 12.85 5.65 11.75 5.15 L11.25 4.85 10.25 5.1 Q9.2 4.85 9.4 3.85 9.65 2.8 10.7 2.8 10.55 2.4 10.9 1.9 11.6 0.75 12.7 1.2 13.75 1.75 13.05 2.8" fill="#ffdc00" fill-rule="evenodd" stroke="none"/>
    </g>
  </defs>
</svg>
